Newaita-dark/actions/22/align-vertical-center.svg

<svg height="22" viewBox="0 0 22 22" width="22" xmlns="http://www.w3.org/2000/svg"><g fill="#e0e0e0"><path d="m4.546875 11.085938c0 .253906-.203125.457031-.453125.457031h-1.820312c-.25 0-.453126-.203125-.453126-.457031 0-.25.203126-.453126.453126-.453126h1.820312c.25 0 .453125.203126.453125.453126zm0 0"/><path d="m20.011719 11.085938c0 .253906-.203125.457031-.457031.457031h-1.816407c-.253906 0-.457031-.203125-.457031-.457031 0-.25.203125-.453126.457031-.453126h1.816407c.253906 0 .457031.203126.457031.453126zm0 0"/><path d="m12.734375 10.632812v.910157h-3.183594v-.910157zm0 0"/><path d="m10.914062 5.628906c0-1.007812-.808593-1.820312-1.816406-1.820312h-3.640625c-1.007812 0-1.820312.8125-1.820312 1.820312v10.914063c0 1.007812.8125 1.820312 1.820312 1.820312h3.640625c1.007813 0 1.816406-.8125 1.816406-1.820312zm-1.816406.457032v10.003906c0 .25-.203125.453125-.457031.453125h-2.726563c-.253906 0-.457031-.203125-.457031-.453125v-10.003906c0-.253907.203125-.457032.457031-.457032h2.726563c.253906 0 .457031.203125.457031.457032zm0 0"/><path d="m18.648438 8.359375c0-1.007813-.8125-1.820313-1.820313-1.820313h-2.730469c-1.007812 0-1.816406.8125-1.816406 1.820313v5.457031c0 1.007813.808594 1.820313 1.816406 1.820313h2.730469c1.007813 0 1.820313-.8125 1.820313-1.820313zm-1.820313.453125v4.546875c0 .253906-.203125.457031-.457031.457031h-1.816406c-.253907 0-.457032-.203125-.457032-.457031v-4.546875c0-.25.203125-.453125.457032-.453125h1.816406c.253906 0 .457031.203125.457031.453125zm0 0"/></g></svg>

<svg xmlns="http://www.w3.org/2000/svg" xmlns:xlink="http://www.w3.org/1999/xlink" width="22px" height="22px" viewBox="0 0 22 22" version="1.1">
<g id="surface1">
     <defs>
  <style id="current-color-scheme" type="text/css">
   .ColorScheme-Text { color:#eeeeee; } .ColorScheme-Highlight { color:#424242; }
  </style>
 </defs>
<path style="fill:currentColor" class="ColorScheme-Text" d="M 4.546875 11.085938 C 4.546875 11.339844 4.34375 11.542969 4.09375 11.542969 L 2.273438 11.542969 C 2.023438 11.542969 1.820312 11.339844 1.820312 11.085938 C 1.820312 10.835938 2.023438 10.632812 2.273438 10.632812 L 4.09375 10.632812 C 4.34375 10.632812 4.546875 10.835938 4.546875 11.085938 Z M 4.546875 11.085938 "/>
     <defs>
  <style id="current-color-scheme" type="text/css">
   .ColorScheme-Text { color:#eeeeee; } .ColorScheme-Highlight { color:#424242; }
  </style>
 </defs>
<path style="fill:currentColor" class="ColorScheme-Text" d="M 20.011719 11.085938 C 20.011719 11.339844 19.808594 11.542969 19.554688 11.542969 L 17.738281 11.542969 C 17.484375 11.542969 17.28125 11.339844 17.28125 11.085938 C 17.28125 10.835938 17.484375 10.632812 17.738281 10.632812 L 19.554688 10.632812 C 19.808594 10.632812 20.011719 10.835938 20.011719 11.085938 Z M 20.011719 11.085938 "/>
     <defs>
  <style id="current-color-scheme" type="text/css">
   .ColorScheme-Text { color:#eeeeee; } .ColorScheme-Highlight { color:#424242; }
  </style>
 </defs>
<path style="fill:currentColor" class="ColorScheme-Text" d="M 12.734375 10.632812 L 12.734375 11.542969 L 9.550781 11.542969 L 9.550781 10.632812 Z M 12.734375 10.632812 "/>
     <defs>
  <style id="current-color-scheme" type="text/css">
   .ColorScheme-Text { color:#eeeeee; } .ColorScheme-Highlight { color:#424242; }
  </style>
 </defs>
<path style="fill:currentColor" class="ColorScheme-Text" d="M 10.914062 5.628906 C 10.914062 4.621094 10.105469 3.808594 9.097656 3.808594 L 5.457031 3.808594 C 4.449219 3.808594 3.636719 4.621094 3.636719 5.628906 L 3.636719 16.542969 C 3.636719 17.550781 4.449219 18.363281 5.457031 18.363281 L 9.097656 18.363281 C 10.105469 18.363281 10.914062 17.550781 10.914062 16.542969 Z M 9.097656 6.085938 L 9.097656 16.089844 C 9.097656 16.339844 8.894531 16.542969 8.640625 16.542969 L 5.914062 16.542969 C 5.660156 16.542969 5.457031 16.339844 5.457031 16.089844 L 5.457031 6.085938 C 5.457031 5.832031 5.660156 5.628906 5.914062 5.628906 L 8.640625 5.628906 C 8.894531 5.628906 9.097656 5.832031 9.097656 6.085938 Z M 9.097656 6.085938 "/>
     <defs>
  <style id="current-color-scheme" type="text/css">
   .ColorScheme-Text { color:#eeeeee; } .ColorScheme-Highlight { color:#424242; }
  </style>
 </defs>
<path style="fill:currentColor" class="ColorScheme-Text" d="M 18.648438 8.359375 C 18.648438 7.351562 17.835938 6.539062 16.828125 6.539062 L 14.097656 6.539062 C 13.089844 6.539062 12.28125 7.351562 12.28125 8.359375 L 12.28125 13.816406 C 12.28125 14.824219 13.089844 15.636719 14.097656 15.636719 L 16.828125 15.636719 C 17.835938 15.636719 18.648438 14.824219 18.648438 13.816406 Z M 16.828125 8.8125 L 16.828125 13.359375 C 16.828125 13.613281 16.625 13.816406 16.371094 13.816406 L 14.554688 13.816406 C 14.300781 13.816406 14.097656 13.613281 14.097656 13.359375 L 14.097656 8.8125 C 14.097656 8.5625 14.300781 8.359375 14.554688 8.359375 L 16.371094 8.359375 C 16.625 8.359375 16.828125 8.5625 16.828125 8.8125 Z M 16.828125 8.8125 "/>
</g>
</svg>
